epam-assets/icon-sources/18/internal-logo/learn.svg

<svg width="18" height="18" viewBox="0 0 18 18" fill="none" xmlns="http://www.w3.org/2000/svg">
<g id="18/internal-logo/learn">
<path id="icon" fill-rule="evenodd" clip-rule="evenodd" d="M7.63458 6.44847L5.03041 5.61514C4.92083 5.58003 4.86041 5.46274 4.89541 5.35316C4.93052 5.24368 5.04781 5.18305 5.15739 5.21816L7.76156 6.05149C7.87114 6.0866 7.93156 6.20389 7.89656 6.31347C7.86812 6.40201 7.78625 6.45847 7.69802 6.45847C7.67708 6.45847 7.65562 6.45514 7.63458 6.44847ZM7.63458 7.90677L5.03041 7.07344C4.92083 7.03834 4.86041 6.92105 4.89541 6.81146C4.93052 6.70198 5.04781 6.64157 5.15739 6.67646L7.76156 7.5098C7.87114 7.5449 7.93156 7.66219 7.89656 7.77178C7.86812 7.86032 7.78625 7.91678 7.69802 7.91678C7.67708 7.91678 7.65562 7.91344 7.63458 7.90677ZM7.63458 9.36511L5.03041 8.53178C4.92083 8.49667 4.86041 8.37938 4.89541 8.2698C4.93052 8.16032 5.04781 8.0999 5.15739 8.1348L7.76156 8.96813C7.87114 9.00323 7.93156 9.12053 7.89656 9.23011C7.86812 9.31865 7.78625 9.37511 7.69802 9.37511C7.67708 9.37511 7.65562 9.37178 7.63458 9.36511ZM7.63458 10.8234L5.03041 9.9901C4.92083 9.95499 4.86041 9.8377 4.89541 9.72812C4.93052 9.61864 5.04781 9.55812 5.15739 9.59312L7.76156 10.4265C7.87114 10.4616 7.93156 10.5788 7.89656 10.6884C7.86812 10.777 7.78625 10.8334 7.69802 10.8334C7.67708 10.8334 7.65562 10.8301 7.63458 10.8234ZM8.49615 4.91011L4.49844 3.75834C4.24062 3.70615 4 3.90553 4 4.17146V10.8953C4 11.0962 4.14021 11.2691 4.335 11.3084L8.79167 12.5V5.30886C8.79167 5.12542 8.67177 4.96355 8.49615 4.91011ZM2.95833 5C2.61323 5 2.33333 5.2799 2.33333 5.625V12.9167H3.16667V5.83333H3.58333V5H2.95833ZM15.0417 5H14.4167V5.83333H14.8333V12.9167H15.6667V5.625C15.6667 5.2799 15.3868 5 15.0417 5ZM12.9696 5.61514L10.3654 6.44847C10.3444 6.45514 10.3229 6.45847 10.302 6.45847C10.2138 6.45847 10.1319 6.40201 10.1034 6.31347C10.0684 6.20389 10.1289 6.0866 10.2384 6.05149L12.8426 5.21816C12.9522 5.18305 13.0695 5.24368 13.1046 5.35316C13.1396 5.46274 13.0792 5.58003 12.9696 5.61514ZM12.9696 7.07344L10.3654 7.90677C10.3444 7.91344 10.3229 7.91678 10.302 7.91678C10.2138 7.91678 10.1319 7.86032 10.1034 7.77178C10.0684 7.66219 10.1289 7.5449 10.2384 7.5098L12.8426 6.67646C12.9522 6.64157 13.0695 6.70198 13.1046 6.81146C13.1396 6.92105 13.0792 7.03834 12.9696 7.07344ZM12.9696 8.53178L10.3654 9.36511C10.3444 9.37178 10.3229 9.37511 10.302 9.37511C10.2138 9.37511 10.1319 9.31865 10.1034 9.23011C10.0684 9.12053 10.1289 9.00323 10.2384 8.96813L12.8426 8.1348C12.9522 8.0999 13.0695 8.16032 13.1046 8.2698C13.1396 8.37938 13.0792 8.49667 12.9696 8.53178ZM12.9696 9.9901L10.3654 10.8234C10.3444 10.8301 10.3229 10.8334 10.302 10.8334C10.2138 10.8334 10.1319 10.777 10.1034 10.6884C10.0684 10.5788 10.1289 10.4616 10.2384 10.4265L12.8426 9.59312C12.9522 9.55812 13.0695 9.61864 13.1046 9.72812C13.1396 9.8377 13.0792 9.95499 12.9696 9.9901ZM13.5016 3.75834L9.50385 4.91011C9.32823 4.96355 9.20833 5.12542 9.20833 5.30886V12.5L13.665 11.3084C13.8598 11.2691 14 11.0962 14 10.8953V4.17146C14 3.90553 13.7594 3.70615 13.5016 3.75834ZM10.6574 13.3436L16.1575 13.3501C16.329 13.3325 16.4824 13.4573 16.5 13.6291L16.4849 14.2708C16.4849 14.4434 16.3451 14.5833 16.1727 14.5833H1.81219C1.63979 14.5833 1.5 14.4434 1.5 14.2708V13.6458C1.5 13.4732 1.63979 13.3333 1.81219 13.3333L7.3274 13.3398V13.4375C7.3274 13.6101 7.46719 13.75 7.63969 13.75H10.3452C10.5176 13.75 10.6574 13.6101 10.6574 13.4375V13.3436Z" fill="#6C6F80"/>
</g>
</svg>

<svg xmlns="http://www.w3.org/2000/svg" width="18" height="18" fill="none" viewBox="0 0 18 18">
  <path fill="#6C6F80" fill-rule="evenodd" d="M7.635 6.448 5.03 5.615a.209.209 0 0 1 .127-.397l2.605.833a.209.209 0 0 1-.127.397Zm0 1.459L5.03 7.073a.209.209 0 0 1 .127-.397l2.605.834a.209.209 0 0 1-.127.397Zm0 1.458L5.03 8.532a.209.209 0 0 1 .127-.397l2.605.833a.209.209 0 0 1-.127.397Zm0 1.458L5.03 9.99a.209.209 0 0 1 .127-.397l2.605.834a.208.208 0 0 1-.127.396Zm.861-5.913L4.498 3.758A.418.418 0 0 0 4 4.171v6.724c0 .201.14.374.335.413L8.792 12.5V5.309a.417.417 0 0 0-.296-.399ZM2.958 5a.625.625 0 0 0-.625.625v7.292h.834V5.833h.416V5h-.625Zm12.084 0h-.625v.833h.416v7.084h.834V5.625A.625.625 0 0 0 15.042 5Zm-2.072.615-2.605.833a.209.209 0 0 1-.127-.397l2.605-.833a.209.209 0 0 1 .127.397Zm0 1.458-2.605.834a.209.209 0 0 1-.127-.397l2.605-.834a.209.209 0 0 1 .127.397Zm0 1.459-2.605.833a.209.209 0 0 1-.127-.397l2.605-.833a.209.209 0 0 1 .127.397Zm0 1.458-2.605.833a.21.21 0 0 1-.262-.135.208.208 0 0 1 .135-.261l2.605-.834a.209.209 0 0 1 .127.397Zm.532-6.232L9.504 4.91a.417.417 0 0 0-.296.399V12.5l4.457-1.192a.42.42 0 0 0 .335-.413V4.171a.418.418 0 0 0-.498-.413Zm-2.845 9.586 5.5.006a.312.312 0 0 1 .343.28l-.015.64c0 .173-.14.313-.312.313H1.813a.312.312 0 0 1-.313-.312v-.625c0-.173.14-.313.312-.313l5.515.007v.098c0 .172.14.312.313.312h2.705c.173 0 .312-.14.312-.313v-.093Z" clip-rule="evenodd"/>
</svg>
